build/img/snowflake.svg

<svg width="24" height="24" viewBox="0 0 24 24" fill="none" xmlns="http://www.w3.org/2000/svg">
<path d="M12 1.5V12" stroke="#94A0B1" stroke-width="1.5" stroke-linecap="round" stroke-linejoin="round"/>
<path d="M12 5.33999L14.19 3.14999" stroke="#94A0B1" stroke-width="1.5" stroke-linecap="round" stroke-linejoin="round"/>
<path d="M12 5.33999L9.81 3.14999" stroke="#94A0B1" stroke-width="1.5" stroke-linecap="round" stroke-linejoin="round"/>
<path d="M2.91 6.75L12 12" stroke="#94A0B1" stroke-width="1.5" stroke-linecap="round" stroke-linejoin="round"/>
<path d="M6.22999 8.66999L5.42999 5.67999" stroke="#94A0B1" stroke-width="1.5" stroke-linecap="round" stroke-linejoin="round"/>
<path d="M6.22999 8.67L3.23999 9.47" stroke="#94A0B1" stroke-width="1.5" stroke-linecap="round" stroke-linejoin="round"/>
<path d="M2.91 17.25L12 12" stroke="#94A0B1" stroke-width="1.5" stroke-linecap="round" stroke-linejoin="round"/>
<path d="M6.22999 15.33L3.23999 14.53" stroke="#94A0B1" stroke-width="1.5" stroke-linecap="round" stroke-linejoin="round"/>
<path d="M6.22999 15.33L5.42999 18.32" stroke="#94A0B1" stroke-width="1.5" stroke-linecap="round" stroke-linejoin="round"/>
<path d="M12 22.5V12" stroke="#94A0B1" stroke-width="1.5" stroke-linecap="round" stroke-linejoin="round"/>
<path d="M12 18.66L9.81 20.85" stroke="#94A0B1" stroke-width="1.5" stroke-linecap="round" stroke-linejoin="round"/>
<path d="M12 18.66L14.19 20.85" stroke="#94A0B1" stroke-width="1.5" stroke-linecap="round" stroke-linejoin="round"/>
<path d="M21.09 17.25L12 12" stroke="#94A0B1" stroke-width="1.5" stroke-linecap="round" stroke-linejoin="round"/>
<path d="M17.77 15.33L18.57 18.32" stroke="#94A0B1" stroke-width="1.5" stroke-linecap="round" stroke-linejoin="round"/>
<path d="M17.77 15.33L20.76 14.53" stroke="#94A0B1" stroke-width="1.5" stroke-linecap="round" stroke-linejoin="round"/>
<path d="M21.09 6.75L12 12" stroke="#94A0B1" stroke-width="1.5" stroke-linecap="round" stroke-linejoin="round"/>
<path d="M17.77 8.67L20.76 9.47" stroke="#94A0B1" stroke-width="1.5" stroke-linecap="round" stroke-linejoin="round"/>
<path d="M17.77 8.66999L18.57 5.67999" stroke="#94A0B1" stroke-width="1.5" stroke-linecap="round" stroke-linejoin="round"/>
</svg>

<svg width="24" height="24" viewBox="0 0 24 24" fill="none" xmlns="http://www.w3.org/2000/svg"><path d="M12 1.5V12m0-6.66l2.19-2.19M12 5.34L9.81 3.15m-6.9 3.6L12 12M6.23 8.67l-.8-2.99m.8 2.99l-2.99.8m-.33 7.78L12 12m-5.77 3.33l-2.99-.8m2.99.8l-.8 2.99M12 22.5V12m0 6.66l-2.19 2.19M12 18.66l2.19 2.19m6.9-3.6L12 12m5.77 3.33l.8 2.99m-.8-2.99l2.99-.8m.33-7.78L12 12m5.77-3.33l2.99.8m-2.99-.8l.8-2.99" stroke="#94A0B1" stroke-width="1.5" stroke-linecap="round" stroke-linejoin="round"/></svg>
